Numix/22/mimetypes/application-x-subrip.svg

<?xml version="1.0" encoding="UTF-8" standalone="no"?>
<svg
   xmlns:dc="http://purl.org/dc/elements/1.1/"
   xmlns:cc="http://creativecommons.org/ns#"
   xmlns:rdf="http://www.w3.org/1999/02/22-rdf-syntax-ns#"
   xmlns:svg="http://www.w3.org/2000/svg"
   xmlns="http://www.w3.org/2000/svg"
   xmlns:sodipodi="http://sodipodi.sourceforge.net/DTD/sodipodi-0.dtd"
   xmlns:inkscape="http://www.inkscape.org/namespaces/inkscape"
   width="22"
   viewBox="0 0 22 22"
   height="22"
   id="svg2"
   version="1.1"
   inkscape:version="0.91 r13725"
   sodipodi:docname="application-x-subrip.svg">
  <metadata
     id="metadata14">
    <rdf:RDF>
      <cc:Work
         rdf:about="">
        <dc:format>image/svg+xml</dc:format>
        <dc:type
           rdf:resource="http://purl.org/dc/dcmitype/StillImage" />
        <dc:title></dc:title>
      </cc:Work>
    </rdf:RDF>
  </metadata>
  <defs
     id="defs12">
    <clipPath
       id="clipPath-156864852">
      <g
         transform="translate(0,-1004.3622)"
         id="g12">
        <path
           style="fill:#1890d0"
           inkscape:connector-curvature="0"
           d="m -24,13 c 0,1.105 -0.672,2 -1.5,2 -0.828,0 -1.5,-0.895 -1.5,-2 0,-1.105 0.672,-2 1.5,-2 0.828,0 1.5,0.895 1.5,2 z"
           transform="matrix(15.333333,0,0,11.5,414.99999,878.8622)"
           id="path14" />
      </g>
    </clipPath>
    <clipPath
       id="clipPath-165128749">
      <g
         transform="translate(0,-1004.3622)"
         id="g17">
        <path
           style="fill:#1890d0"
           inkscape:connector-curvature="0"
           d="m -24,13 c 0,1.105 -0.672,2 -1.5,2 -0.828,0 -1.5,-0.895 -1.5,-2 0,-1.105 0.672,-2 1.5,-2 0.828,0 1.5,0.895 1.5,2 z"
           transform="matrix(15.333333,0,0,11.5,414.99999,878.8622)"
           id="path19" />
      </g>
    </clipPath>
  </defs>
  <sodipodi:namedview
     pagecolor="#ffffff"
     bordercolor="#666666"
     borderopacity="1"
     objecttolerance="10"
     gridtolerance="10"
     guidetolerance="10"
     inkscape:pageopacity="0"
     inkscape:pageshadow="2"
     inkscape:window-width="1920"
     inkscape:window-height="1016"
     id="namedview10"
     showgrid="true"
     inkscape:zoom="32"
     inkscape:cx="16.881978"
     inkscape:cy="11.273536"
     inkscape:window-x="0"
     inkscape:window-y="27"
     inkscape:window-maximized="1"
     inkscape:current-layer="svg2">
    <inkscape:grid
       type="xygrid"
       id="grid4146" />
  </sodipodi:namedview>
  <path
     style="fill:#376a94;fill-opacity:1"
     d="M 3.8888889,0 C 3.4317462,0 3,0.464596 3,0.9565215 L 3,21.043478 C 3,21.508074 3.4571431,22 3.8888889,22 L 18.111111,22 C 18.542857,22 19,21.508074 19,21.043478 L 19,6 13,0 Z"
     id="path4"
     inkscape:connector-curvature="0"
     sodipodi:nodetypes="ssssssccs" />
  <path
     style="fill:#ffffff;fill-opacity:0.39200003"
     d="m 13,0 6,6 -5.076923,0 C 13.474725,6 13,5.5252752 13,5.0769232 L 13,0 Z"
     id="path8"
     inkscape:connector-curvature="0" />
  <g
     transform="matrix(0.41653489,0,0,0.36419415,1.0059937,3.6293312)"
     id="g49"
     style="fill:#ffffff">
    <g
       clip-path="url(#clipPath-165128749)"
       id="g51"
       style="fill:#ffffff">
      <!-- color: #474747 -->
      <g
         id="g53"
         style="fill:#ffffff">
        <path
           d="m 19.191685,12.000931 c -3.926,0 -7.202279,3.877819 -7.202278,7.803819 l 10e-7,3.90191 c 1e-6,3.926 3.276277,7.303574 7.202277,7.303574 l 9.603037,0 c 3.925956,0 7.202277,-3.377573 7.202278,-7.303574 l 0,-3.90191 c 0,-3.926 -3.276278,-7.803819 -7.202278,-7.803819"
           id="path55"
           inkscape:connector-curvature="0"
           style="fill:#ffffff;fill-opacity:1;fill-rule:nonzero;stroke:none"
           sodipodi:nodetypes="cssssssc" />
        <path
           style="fill:#ffffff;fill-opacity:1;fill-rule:nonzero;stroke:none"
           inkscape:connector-curvature="0"
           d="m 33.59624,25.729872 -12.003796,0 -4.801519,13.728941"
           id="path57"
           sodipodi:nodetypes="ccc" />
      </g>
    </g>
  </g>
  <path
     style="fill:#000000;fill-opacity:0.19599998"
     d="M 14,6.0000005 19,11 19,6.0000005 Z"
     id="path6-0"
     inkscape:connector-curvature="0"
     sodipodi:nodetypes="cccc" />
</svg>

<svg xmlns="http://www.w3.org/2000/svg" viewBox="0 0 22 22">
 <defs>
  
 </defs>
 <path d="m 3.889 0 c -0.457 0 -0.889 0.465 -0.889 0.957 l 0 20.09 c 0 0.465 0.457 0.957 0.889 0.957 l 14.222 0 c 0.432 0 0.889 -0.492 0.889 -0.957 l 0 -15.04 -6 -6" style="fill:#376a94;fill-opacity:1"/>
 <path d="m 13 0 6 6 -5.077 0 c -0.448 0 -0.923 -0.475 -0.923 -0.923 l 0 -5.077" style="fill:#fff;fill-opacity:0.392"/>
 <g transform="matrix(0.41653489,0,0,0.36419415,1.0059937,3.6293312)" style="fill:#fff">
  <g style="clip-path:url(#clipPath-165128749);fill:#fff">
   <!-- color: #474747 -->
   <g style="fill:#fff">
    <path d="m 19.19 12 c -3.926 0 -7.202 3.878 -7.202 7.804 l 0 3.902 c 0 3.926 3.276 7.304 7.202 7.304 l 9.603 0 c 3.926 0 7.202 -3.378 7.202 -7.304 l 0 -3.902 c 0 -3.926 -3.276 -7.804 -7.202 -7.804" style="fill:#fff;fill-opacity:1;stroke:none;fill-rule:nonzero"/>
    <path d="m 33.596 25.73 -12 0 -4.802 13.729" style="fill:#fff;fill-opacity:1;stroke:none;fill-rule:nonzero"/>
   </g>
  </g>
 </g>
 <path d="m 14 6 5 5 0 -5" style="fill:#000;fill-opacity:0.196"/>
</svg>
